assets/svg/1f1ea-1f1ed.svg

<svg xmlns="http://www.w3.org/2000/svg" viewBox="0 0 64 64" enable-background="new 0 0 64 64"><path fill="#83bf4f" d="m60 42c-5.523 0-10-4.477-10-10h-39.21v21.21h-.002c5.43 5.43 12.93 8.788 21.21 8.788 13.07 0 24.18-8.356 28.29-20.02-.098.003-.193.015-.291.015"/><path fill="#3e4347" d="m60 22c.098 0 .193.012.291.015-4.115-11.659-15.225-20.02-28.29-20.02-8.285 0-15.785 3.358-21.21 8.788h.002v21.21h39.21c0-5.523 4.477-10 10-10"/><path fill="#f9f9f9" d="m60.29 22h-49.5v20h49.5c1.107-3.129 1.714-6.492 1.714-10s-.607-6.871-1.714-10"/><g fill="#ed4c5c"><path d="M10.787,10.787C5.357,16.216,2,23.716,2,32s3.357,15.784,8.787,21.213L32,32L10.787,10.787z"/><path d="m44 38.857c-3.042-.646-5.333-3.473-5.333-6.857s2.291-6.211 5.333-6.857c-.43-.096-.876-.143-1.332-.143-3.684 0-6.668 3.137-6.668 7s2.984 7 6.668 7c.456 0 .902-.047 1.332-.143"/><path d="m44.999 34.12l2.471 1.88-.932-3.053 2.462-1.947h-3.052l-.949-3-.919 3h-3.08l2.46 1.947-.93 3.053z"/></g></svg>

<svg xmlns="http://www.w3.org/2000/svg" width="64" height="64" viewBox="0 0 64 64"><path fill="#83BF4F" d="M60 42c-5.523 0-10-4.477-10-10H10.787v21.213l-.002-.001C16.215 58.642 23.715 62 32 62c13.066 0 24.176-8.356 28.291-20.015-.098.003-.193.015-.291.015z"/><path fill="#3E4347" d="M60 22c.098 0 .193.012.291.015C56.176 10.356 45.066 2 32 2c-8.285 0-15.785 3.358-21.215 8.788l.002-.001V32H50c0-5.523 4.477-10 10-10z"/><path fill="#F9F9F9" d="M60.286 22H10.787v20h49.499C61.393 38.871 62 35.508 62 32s-.607-6.871-1.714-10z"/><path fill="#ED4C5C" d="M10.787 10.787C5.357 16.216 2 23.716 2 32s3.357 15.784 8.787 21.213L32 32 10.787 10.787zM44 38.857c-3.042-.646-5.333-3.473-5.333-6.857s2.291-6.211 5.333-6.857A6.108 6.108 0 0 0 42.668 25C38.984 25 36 28.137 36 32s2.984 7 6.668 7c.456 0 .902-.047 1.332-.143z"/><path fill="#ED4C5C" d="M44.999 34.124L47.47 36l-.932-3.053L49 31.001h-3.052L44.999 28l-.923 3.001H41l2.461 1.946L42.53 36z"/></svg>
